X:46
T:Ladies of Newcastle
T:The Newcastle Country Dancers signature tune
C:David Ricker
O:Southern Faire
S:Lea Ann Thompson
Z:transcribed by C.McGrew (clark.mcgrew@sunysb.edu)
H:
%I learned this from Lea Ann and later from David.  This
%shouldn't be played for ECD demos' without asking since it
%really belongs to Newcastle, but it makes a great Contradance
%Jig.  I think Susi still remembers the dance so I should probably
%get the notes from her. -Clark
M:6/8
L:1/8
Q:3/8=120
K:Cmaj clef=treble
G | "C"ceg c'bc' | gfe "G"def | "F"gc'e fga | "C"gec "G"dBG |
"C"ceg c'bc' | "G"gfe def | "F"gc'e fed | "Dm"cAB "C"c2 :|
e | "G"dBG Bdg | "C"edc efg | "G"c'd'e' d'bg | "Dm"fge "G"dBG |
"Am"ABc "E"ded | "C"cde "F"fga | "G"gc'e "F"fed | "Dm"cAB "C"c2 
%Warning : No repeat expected, found :|
:|

